picto/not-drinking-water-framed.svg

<svg class="color-immutable" width="30" height="30" viewBox="0 0 30 30" fill="none" xmlns="http://www.w3.org/2000/svg"><path d="M29.9999 0H0V29.9999H29.9999V0Z" fill="#2D327D"/><path d="M25.4999 2.99999C26.3249 2.99999 26.9999 3.67499 26.9999 4.49999V25.4999C26.9999 26.3249 26.3249 26.9999 25.4999 26.9999H4.49999C3.67499 26.9999 2.99999 26.3249 2.99999 25.4999V4.49999C2.99999 3.67499 3.67499 2.99999 4.49999 2.99999H25.4999ZM25.4999 2.62499H4.49999C3.46612 2.62499 2.62499 3.46612 2.62499 4.49999V25.4999C2.62499 26.5338 3.46612 27.3749 4.49999 27.3749H25.4999C26.5338 27.3749 27.3749 26.5338 27.3749 25.4999V4.49999C27.3749 3.46612 26.5338 2.62499 25.4999 2.62499Z" fill="white"/><path d="M12.0113 9.46513L13.6557 7.82165L11.7726 5.93856C11.702 5.86903 11.6072 5.82808 11.5087 5.82808C11.4084 5.82808 11.3136 5.86903 11.2421 5.93856L10.1282 7.05283C10.0595 7.12243 10.0185 7.2191 10.0185 7.31743C10.0185 7.41778 10.0595 7.5125 10.1282 7.58308L12.0113 9.46513Z" fill="white"/><path d="M15.7508 10.5005L13.8945 8.64335L12.8336 9.70468L13.6287 10.5005H10.1264C9.09049 10.5005 8.24974 11.3398 8.24974 12.3741V13.4995H9.74914V12.3741C9.74914 12.1681 9.91826 12 10.1264 12H19.5002V10.5005H15.7508Z" fill="white"/><path d="M12.0001 17.2953L13.5076 15.7878L12.712 14.9923L12 15.7043V15.2637C12 15.1169 11.8829 14.9998 11.738 14.9998H6.26343C6.11846 14.9998 5.99958 15.1169 5.99958 15.2637V15.7044L5.28746 14.9923L4.49193 15.7878L5.99958 17.2953V21.7048L4.49193 23.2124L5.28746 24.008L6.14816 23.1473C6.39025 23.6511 6.90438 23.9998 7.50093 23.9998H10.5008C11.0965 23.9998 11.6099 23.6512 11.8517 23.1475L12.7121 24.008L13.5077 23.2125L12.0002 21.7049V17.2953H12.0001ZM9.00032 18.6007C8.9407 18.5723 8.8798 18.5469 8.81838 18.5229L7.88425 17.5889C8.27133 17.5956 8.65217 17.6835 9.00032 17.8496C9.2056 17.9477 9.42167 18.0178 9.64337 18.0611L9.0721 18.6324C9.0481 18.6219 9.02395 18.612 9.00032 18.6007ZM11.3256 18.6007C11.0487 18.7323 10.7517 18.815 10.4483 18.847L11.3256 17.9697V18.6007ZM7.83723 16.1623C8.24043 16.1623 8.63808 16.2515 9.00032 16.4243C9.36362 16.5969 9.76037 16.6878 10.1634 16.6878C10.5351 16.6878 10.9032 16.6089 11.2441 16.4603L10.2702 17.4342C10.2347 17.4356 10.199 17.4371 10.1634 17.4371C9.76037 17.4371 9.36362 17.3479 9.00032 17.1753C8.63808 17.0028 8.24043 16.9125 7.83723 16.9125C7.64553 16.9125 7.45525 16.9336 7.26918 16.9737L6.70615 16.4108C7.06038 16.2474 7.44595 16.1623 7.83723 16.1623ZM7.1356 18.4313C6.97803 18.474 6.82398 18.5301 6.67593 18.6007V17.9716L7.1356 18.4313Z" fill="white"/><path d="M8.99995 18.7045L5.28746 14.9924L4.49193 15.7878L8.20435 19.5L4.49193 23.2125L5.28746 24.008L8.99995 20.2957L12.7121 24.008L13.5077 23.2125L9.79532 19.5L13.5077 15.7878L12.7121 14.9924L8.99995 18.7045Z" fill="#EB0000"/></svg>

<svg class="color-immutable" width="30" height="30" viewBox="0 0 30 30" fill="none" xmlns="http://www.w3.org/2000/svg"><path d="M30 0H0v30h30V0Z" fill="#2D327D"/><path d="M25.5 3c.825 0 1.5.675 1.5 1.5v21c0 .825-.675 1.5-1.5 1.5h-21c-.825 0-1.5-.675-1.5-1.5v-21C3 3.675 3.675 3 4.5 3h21Zm0-.375h-21A1.877 1.877 0 0 0 2.625 4.5v21c0 1.034.841 1.875 1.875 1.875h21a1.877 1.877 0 0 0 1.875-1.875v-21A1.877 1.877 0 0 0 25.5 2.625Z" fill="#fff"/><path d="m12.011 9.465 1.645-1.643-1.883-1.883a.378.378 0 0 0-.264-.11c-.1 0-.195.04-.267.11l-1.114 1.114a.381.381 0 0 0-.11.264c0 .1.041.196.11.266l1.883 1.882Z" fill="#fff"/><path d="m15.75 10.5-1.855-1.857-1.061 1.062.795.796h-3.503c-1.036 0-1.876.839-1.876 1.873V13.5h1.5v-1.125c0-.206.168-.374.376-.374H19.5v-1.5h-3.75ZM12 17.295l1.508-1.507-.796-.796-.712.712v-.44a.262.262 0 0 0-.262-.264H6.263a.264.264 0 0 0-.263.264v.44l-.713-.712-.795.796L6 17.295v4.41l-1.508 1.507.795.796.861-.86A1.5 1.5 0 0 0 7.501 24h3c.596 0 1.109-.349 1.35-.852l.861.86.796-.796L12 21.705v-4.41Zm-3 1.306a2.747 2.747 0 0 0-.182-.078l-.934-.934a2.7 2.7 0 0 1 1.116.26c.206.099.422.169.643.212l-.57.571c-.025-.01-.05-.02-.073-.031Zm2.326 0a2.705 2.705 0 0 1-.878.246l.878-.877v.63Zm-3.489-2.439c.403 0 .801.09 1.163.262.364.173.76.264 1.163.264.372 0 .74-.08 1.081-.228l-.974.974A2.708 2.708 0 0 1 9 17.175a2.707 2.707 0 0 0-1.73-.201l-.564-.563a2.7 2.7 0 0 1 1.131-.249Zm-.701 2.27a2.72 2.72 0 0 0-.46.169v-.63l.46.46Z" fill="#fff"/><path d="m9 18.704-3.713-3.712-.795.796L8.204 19.5l-3.712 3.712.795.796L9 20.296l3.712 3.712.796-.796L9.795 19.5l3.713-3.712-.796-.796L9 18.704Z" fill="#EB0000"/></svg>
